assets/svg/app/call-to-action.svg

<svg width="72" height="70" viewBox="0 0 72 70" fill="none" xmlns="http://www.w3.org/2000/svg">
<g filter="url(#filter0_d)">
<path d="M54.9462 52.8206H16.6644C16.3556 52.8206 16.0594 52.6979 15.8411 52.4796C15.6227 52.2612 15.5 51.965 15.5 51.6562V16.6644C15.5 16.3556 15.6227 16.0594 15.8411 15.8411C16.0594 15.6227 16.3556 15.5 16.6644 15.5H54.9462C55.255 15.5 55.5512 15.6227 55.7696 15.8411C55.988 16.0594 56.1106 16.3556 56.1106 16.6644V51.6562C56.1106 51.965 55.988 52.2612 55.7696 52.4796C55.5512 52.6979 55.255 52.8206 54.9462 52.8206Z" stroke="#00D1FF"/>
<path d="M51.6721 19.9388L51.6721 48.3825L19.9384 48.3825L19.9384 19.9388L51.6721 19.9388Z" stroke="#00D1FF"/>
<path d="M21.4684 30H18.5316C18.3906 30 18.2554 29.9531 18.1557 29.8696C18.056 29.7861 18 29.6729 18 29.5548V24.4452C18 24.3271 18.056 24.2139 18.1557 24.1304C18.2554 24.0469 18.3906 24 18.5316 24H21.4684C21.6094 24 21.7446 24.0469 21.8443 24.1304C21.944 24.2139 22 24.3271 22 24.4452V29.5548C22 29.6729 21.944 29.7861 21.8443 29.8696C21.7446 29.9531 21.6094 30 21.4684 30Z" fill="#00D1FF"/>
<path d="M21.4684 44H18.5316C18.3906 44 18.2554 43.9531 18.1557 43.8696C18.056 43.7861 18 43.6729 18 43.5548V38.4452C18 38.3271 18.056 38.2139 18.1557 38.1304C18.2554 38.0469 18.3906 38 18.5316 38H21.4684C21.6094 38 21.7446 38.0469 21.8443 38.1304C21.944 38.2139 22 38.3271 22 38.4452V43.5548C22 43.6729 21.944 43.7861 21.8443 43.8696C21.7446 43.9531 21.6094 44 21.4684 44Z" fill="#00D1FF"/>
<path d="M18.9258 53.3207H23.4403V54.4453C23.4403 54.5924 23.3818 54.7335 23.2778 54.8376C23.1737 54.9416 23.0326 55.0001 22.8855 55.0001H19.4806C19.3335 55.0001 19.1924 54.9416 19.0883 54.8376C18.9843 54.7335 18.9258 54.5924 18.9258 54.4453V53.3207Z" fill="#00D1FF"/>
<path d="M48.1703 53.3207H52.6848V54.4453C52.6848 54.5924 52.6264 54.7335 52.5223 54.8376C52.4183 54.9416 52.2772 55.0001 52.13 55.0001H48.7252C48.578 55.0001 48.4369 54.9416 48.3328 54.8376C48.2288 54.7335 48.1703 54.5924 48.1703 54.4453V53.3207Z" fill="#00D1FF"/>
<path d="M46.5 34C46.5 39.799 41.799 44.5 36 44.5C30.201 44.5 25.5 39.799 25.5 34C25.5 28.201 30.201 23.5 36 23.5C41.799 23.5 46.5 28.201 46.5 34Z" stroke="#00D1FF"/>
<path d="M36 38C38.2091 38 40 36.2091 40 34C40 31.7909 38.2091 30 36 30C33.7909 30 32 31.7909 32 34C32 36.2091 33.7909 38 36 38Z" fill="#00D1FF"/>
<path d="M36.0002 26V27.9634V26Z" fill="#00D1FF"/>
<path d="M36.0002 26V27.9634" stroke="#00D1FF" stroke-miterlimit="10" stroke-linecap="square" stroke-linejoin="round"/>
<path d="M36.0002 40.0366V42V40.0366Z" fill="#00D1FF"/>
<path d="M36.0002 40.0366V42" stroke="#00D1FF" stroke-miterlimit="10" stroke-linecap="square" stroke-linejoin="round"/>
<path d="M41.6575 28.3433L40.2694 29.7314L41.6575 28.3433Z" fill="#00D1FF"/>
<path d="M41.6575 28.3433L40.2694 29.7314" stroke="#00D1FF" stroke-miterlimit="10" stroke-linecap="square" stroke-linejoin="round"/>
<path d="M31.7319 38.2695L30.3437 39.657L31.7319 38.2695Z" fill="#00D1FF"/>
<path d="M31.7319 38.2695L30.3437 39.657" stroke="#00D1FF" stroke-miterlimit="10" stroke-linecap="square" stroke-linejoin="round"/>
<path d="M44.0005 34.0004H42.0371H44.0005Z" fill="#00D1FF"/>
<path d="M44.0005 34.0004H42.0371" stroke="#00D1FF" stroke-miterlimit="10" stroke-linecap="square" stroke-linejoin="round"/>
<path d="M29.9634 34.0004H28H29.9634Z" fill="#00D1FF"/>
<path d="M29.9634 34.0004H28" stroke="#00D1FF" stroke-miterlimit="10" stroke-linecap="square" stroke-linejoin="round"/>
<path d="M41.6575 39.657L40.2694 38.2695L41.6575 39.657Z" fill="#00D1FF"/>
<path d="M41.6575 39.657L40.2694 38.2695" stroke="#00D1FF" stroke-miterlimit="10" stroke-linecap="square" stroke-linejoin="round"/>
<path d="M31.7319 29.7314L30.3437 28.3433L31.7319 29.7314Z" fill="#00D1FF"/>
<path d="M31.7319 29.7314L30.3437 28.3433" stroke="#00D1FF" stroke-miterlimit="10" stroke-linecap="square"/>
</g>
<defs>
<filter id="filter0_d" x="0" y="0" width="71.6106" height="70.0001" filterUnits="userSpaceOnUse" color-interpolation-filters="sRGB">
<feFlood flood-opacity="0" result="BackgroundImageFix"/>
<feColorMatrix in="SourceAlpha" type="matrix" values="0 0 0 0 0 0 0 0 0 0 0 0 0 0 0 0 0 0 127 0"/>
<feOffset/>
<feGaussianBlur stdDeviation="7.5"/>
<feColorMatrix type="matrix" values="0 0 0 0 0 0 0 0 0 0.819608 0 0 0 0 1 0 0 0 0.6 0"/>
<feBlend mode="normal" in2="BackgroundImageFix" result="effect1_dropShadow"/>
<feBlend mode="normal" in="SourceGraphic" in2="effect1_dropShadow" result="shape"/>
</filter>
</defs>
</svg>

<svg width="72" height="70" fill="none" xmlns="http://www.w3.org/2000/svg">
    <g filter="url(#a)">
        <path d="M54.946 52.82H16.664a1.164 1.164 0 0 1-1.164-1.164V16.664a1.164 1.164 0 0 1 1.164-1.164h38.282a1.165 1.165 0 0 1 1.165 1.164v34.992a1.164 1.164 0 0 1-1.165 1.165Z" stroke="#00D1FF"/>
        <path d="M51.672 19.939v28.444H19.938V19.939h31.734Z" stroke="#00D1FF"/>
        <path d="M21.468 30h-2.936a.588.588 0 0 1-.376-.13.412.412 0 0 1-.156-.315v-5.11c0-.118.056-.231.156-.315.1-.083.235-.13.376-.13h2.936a.59.59 0 0 1 .376.13c.1.084.156.197.156.315v5.11a.412.412 0 0 1-.156.315.588.588 0 0 1-.376.13Zm0 14h-2.936a.588.588 0 0 1-.376-.13.412.412 0 0 1-.156-.315v-5.11c0-.118.056-.231.156-.315.1-.083.235-.13.376-.13h2.936a.59.59 0 0 1 .376.13c.1.084.156.197.156.315v5.11a.412.412 0 0 1-.156.315.588.588 0 0 1-.376.13Zm-2.542 9.32h4.514v1.125a.555.555 0 0 1-.555.555h-3.404a.555.555 0 0 1-.555-.555v-1.124Zm29.244 0h4.515v1.125a.555.555 0 0 1-.555.555h-3.405a.555.555 0 0 1-.555-.555v-1.124Z" fill="#00D1FF"/>
        <path d="M46.5 34c0 5.799-4.701 10.5-10.5 10.5S25.5 39.799 25.5 34 30.201 23.5 36 23.5 46.5 28.201 46.5 34Z" stroke="#00D1FF"/>
        <path d="M36 38a4 4 0 1 0 0-8 4 4 0 0 0 0 8Zm0-12v1.963V26Z" fill="#00D1FF"/>
        <path d="M36 26v1.963" stroke="#00D1FF" stroke-miterlimit="10" stroke-linecap="square" stroke-linejoin="round"/>
        <path d="M36 40.037V42v-1.963Z" fill="#00D1FF"/>
        <path d="M36 40.037V42" stroke="#00D1FF" stroke-miterlimit="10" stroke-linecap="square" stroke-linejoin="round"/>
        <path d="m41.657 28.343-1.388 1.388 1.389-1.388Z" fill="#00D1FF"/>
        <path d="m41.657 28.343-1.388 1.388" stroke="#00D1FF" stroke-miterlimit="10" stroke-linecap="square" stroke-linejoin="round"/>
        <path d="m31.732 38.27-1.388 1.387 1.388-1.387Z" fill="#00D1FF"/>
        <path d="m31.732 38.27-1.388 1.387" stroke="#00D1FF" stroke-miterlimit="10" stroke-linecap="square" stroke-linejoin="round"/>
        <path d="M44 34h-1.963 1.964Z" fill="#00D1FF"/>
        <path d="M44 34h-1.963" stroke="#00D1FF" stroke-miterlimit="10" stroke-linecap="square" stroke-linejoin="round"/>
        <path d="M29.963 34H28h1.963Z" fill="#00D1FF"/>
        <path d="M29.963 34H28" stroke="#00D1FF" stroke-miterlimit="10" stroke-linecap="square" stroke-linejoin="round"/>
        <path d="M41.657 39.657 40.27 38.27l1.389 1.387Z" fill="#00D1FF"/>
        <path d="M41.657 39.657 40.27 38.27" stroke="#00D1FF" stroke-miterlimit="10" stroke-linecap="square" stroke-linejoin="round"/>
        <path d="m31.732 29.731-1.388-1.388 1.388 1.388Z" fill="#00D1FF"/>
        <path d="m31.732 29.731-1.388-1.388" stroke="#00D1FF" stroke-miterlimit="10" stroke-linecap="square"/>
    </g>
    <defs>
        <filter id="a" x="0" y="0" width="71.611" height="70" filterUnits="userSpaceOnUse" color-interpolation-filters="sRGB">
            <feFlood flood-opacity="0" result="BackgroundImageFix"/>
            <feColorMatrix in="SourceAlpha" values="0 0 0 0 0 0 0 0 0 0 0 0 0 0 0 0 0 0 127 0"/>
            <feOffset/>
            <feGaussianBlur stdDeviation="7.5"/>
            <feColorMatrix values="0 0 0 0 0 0 0 0 0 0.819608 0 0 0 0 1 0 0 0 0.6 0"/>
            <feBlend in2="BackgroundImageFix" result="effect1_dropShadow"/>
            <feBlend in="SourceGraphic" in2="effect1_dropShadow" result="shape"/>
        </filter>
    </defs>
</svg>
